dist/svg/combine.svg

<?xml version="1.0" encoding="UTF-8" standalone="no"?>
<!-- Created with Inkscape (http://www.inkscape.org/) -->

<svg
   xmlns:dc="http://purl.org/dc/elements/1.1/"
   xmlns:cc="http://creativecommons.org/ns#"
   xmlns:rdf="http://www.w3.org/1999/02/22-rdf-syntax-ns#"
   xmlns:svg="http://www.w3.org/2000/svg"
   xmlns="http://www.w3.org/2000/svg"
   xmlns:xlink="http://www.w3.org/1999/xlink"
   xmlns:sodipodi="http://sodipodi.sourceforge.net/DTD/sodipodi-0.dtd"
   xmlns:inkscape="http://www.inkscape.org/namespaces/inkscape"
   width="20"
   height="20"
   id="svg5738"
   version="1.1"
   inkscape:version="0.91 r13725"
   sodipodi:docname="combine.svg">
  <defs
     id="defs5740">
    <linearGradient
       inkscape:collect="always"
       xlink:href="#linearGradient4103"
       id="linearGradient4184"
       gradientUnits="userSpaceOnUse"
       x1="3003"
       y1="10"
       x2="3017"
       y2="10"
       gradientTransform="translate(1,2.6171874e-6)" />
    <linearGradient
       inkscape:collect="always"
       id="linearGradient4103">
      <stop
         style="stop-color:#000000;stop-opacity:1;"
         offset="0"
         id="stop4105" />
      <stop
         style="stop-color:#000000;stop-opacity:0;"
         offset="1"
         id="stop4107" />
    </linearGradient>
  </defs>
  <sodipodi:namedview
     id="base"
     pagecolor="#ffffff"
     bordercolor="#666666"
     borderopacity="1.0"
     inkscape:pageopacity="0.0"
     inkscape:pageshadow="2"
     inkscape:zoom="16"
     inkscape:cx="2.423006"
     inkscape:cy="12.173165"
     inkscape:document-units="px"
     inkscape:current-layer="layer1"
     showgrid="false"
     inkscape:window-width="2078"
     inkscape:window-height="1054"
     inkscape:window-x="900"
     inkscape:window-y="296"
     inkscape:window-maximized="0"
     showguides="false"
     inkscape:snap-bbox="true"
     inkscape:bbox-paths="true"
     inkscape:bbox-nodes="true"
     inkscape:object-paths="true"
     inkscape:object-nodes="true"
     inkscape:snap-smooth-nodes="true"
     inkscape:snap-others="false"
     inkscape:snap-nodes="false">
    <inkscape:grid
       type="xygrid"
       id="grid5746"
       empspacing="2"
       visible="true"
       enabled="true"
       snapvisiblegridlinesonly="true"
       spacingx="0.5px"
       spacingy="0.5px"
       color="#0000ff"
       opacity="0.05882353" />
  </sodipodi:namedview>
  <metadata
     id="metadata5743">
    <rdf:RDF>
      <cc:Work
         rdf:about="">
        <dc:format>image/svg+xml</dc:format>
        <dc:type
           rdf:resource="http://purl.org/dc/dcmitype/StillImage" />
        <dc:title></dc:title>
      </cc:Work>
    </rdf:RDF>
  </metadata>
  <g
     inkscape:label="Layer 1"
     inkscape:groupmode="layer"
     id="layer1"
     transform="translate(0,-1032.3622)">
    <path
       style="color:#000000;clip-rule:nonzero;display:inline;overflow:visible;visibility:visible;opacity:1;isolation:auto;mix-blend-mode:normal;color-interpolation:sRGB;color-interpolation-filters:linearRGB;solid-color:#000000;solid-opacity:1;fill:#000000;fill-opacity:1;fill-rule:nonzero;stroke:none;stroke-width:2;stroke-linecap:butt;stroke-linejoin:miter;stroke-miterlimit:4;stroke-dasharray:none;stroke-dashoffset:0;stroke-opacity:1;marker:none;color-rendering:auto;image-rendering:auto;shape-rendering:auto;text-rendering:auto;enable-background:accumulate"
       d="M 12.050781 2 C 11.795262 2 11.539542 2.0971762 11.34375 2.2929688 L 10.298828 3.3378906 C 9.9072437 3.7294757 9.9072437 4.360368 10.298828 4.7519531 L 15.248047 9.7011719 C 15.639631 10.092757 16.270525 10.092757 16.662109 9.7011719 L 17.707031 8.65625 C 18.098616 8.2646649 18.098616 7.6337726 17.707031 7.2421875 L 12.757812 2.2929688 C 12.56202 2.0971762 12.306301 2 12.050781 2 z M 8 8 C 7 8 7 9 7.5 9.5 C 7.833333 9.8333 8.5 10.5 8.5 10.5 L 7.5 11.5 C 7.5 11.5 7 12 7.5 12.5 C 8 13 8.5 12.5 8.5 12.5 L 9.5 11.5 L 10.5 12.5 C 11 13 12 13 12 12 L 12 8 L 8 8 z M 4 10.003906 C 3.74451 10.003906 3.4906916 10.103039 3.2949219 10.298828 L 2.2988281 11.294922 C 1.9072888 11.6865 1.9072888 12.315453 2.2988281 12.707031 L 3.296875 13.707031 C 3.6884144 14.098609 4.3193981 14.098609 4.7109375 13.707031 L 5.7070312 12.710938 C 6.0985706 12.31936 6.0985706 11.688453 5.7070312 11.296875 L 4.7070312 10.298828 C 4.5112616 10.103039 4.25549 10.003906 4 10.003906 z M 7.9960938 14 C 7.7405942 14 7.4848395 14.097187 7.2890625 14.292969 L 6.2949219 15.289062 C 5.9033679 15.680626 5.9033679 16.311561 6.2949219 16.703125 L 7.2929688 17.701172 C 7.6845227 18.092735 8.3135242 18.092735 8.7050781 17.701172 L 9.7011719 16.705078 C 10.092726 16.313515 10.092726 15.684532 9.7011719 15.292969 L 8.703125 14.292969 C 8.507348 14.097187 8.2515933 14 7.9960938 14 z "
       transform="translate(0,1032.3622)"
       id="rect9198" />
  </g>
</svg>

<svg xmlns="http://www.w3.org/2000/svg" viewBox="0 0 20 20">
	<path d="M12.1,2c-0.3,0-0.5,0.1-0.7,0.3l-1,1c-0.4,0.4-0.4,1,0,1.4l4.9,4.9c0.4,0.4,1,0.4,1.4,0l1-1 c0.4-0.4,0.4-1,0-1.4l-4.9-4.9C12.6,2.1,12.3,2,12.1,2z M8,8C7,8,7,9,7.5,9.5c0.3,0.3,1,1,1,1l-1,1c0,0-0.5,0.5,0,1s1,0,1,0l1-1l1,1 C11,13,12,13,12,12V8H8z M4,10c-0.3,0-0.5,0.1-0.7,0.3l-1,1c-0.4,0.4-0.4,1,0,1.4l1,1c0.4,0.4,1,0.4,1.4,0l1-1c0.4-0.4,0.4-1,0-1.4 l-1-1C4.5,10.1,4.3,10,4,10z M8,14c-0.3,0-0.5,0.1-0.7,0.3l-1,1c-0.4,0.4-0.4,1,0,1.4l1,1c0.4,0.4,1,0.4,1.4,0l1-1 c0.4-0.4,0.4-1,0-1.4l-1-1C8.5,14.1,8.3,14,8,14z"/>
</svg>
